;FLAVOR:Marlin
;TIME:3488
;Filament used: 3.0409m
;Layer height: 0.28
;MINX:44
;MINY:74.137
;MINZ:0.28
;MAXX:176
;MAXY:145.863
;MAXZ:5.04
;Generated with Cura_SteamEngine 5.3.0
M82 ;absolute extrusion mode
; Ender 3 S1 Start G-code
G92 E0 ; Reset Extruder
G28 ; Home all axes
G1 Z10.0 F3000 ; Move Z Axis up little to prevent scratching of Heat Bed
G1 X0 Y0

M104 S200
M190 S60
M109 S200

G1 X0.1 Y20 Z0.3 F5000.0 ; Move to start position
G1 X0.1 Y200.0 Z0.3 F1500.0 E15 ; Draw the first line
G1 X0.4 Y200.0 Z0.3 F5000.0 ; Move to side a little
G1 X0.4 Y20 Z0.3 F1500.0 E30 ; Draw the second line
G92 E0 ; Reset Extruder
G1 Z2.0 F3000 ; Move Z Axis up little to prevent scratching of Heat Bed
G1 X5 Y20 Z0.3 F5000.0 ; Move over to prevent blob squish

G92 E0
G92 E0
G1 F2400 E-0.8
;LAYER_COUNT:18
;LAYER:0
M107
M204 S2000
G0 F7500 X50.178 Y88.774 Z0.28
M204 S500
;TYPE:SKIRT
G1 F2400 E0
G1 F1500 X50.992 Y88.382 E0.04207
G1 X51.837 Y88.063 E0.08413
G1 X52.582 Y87.85 E0.12021
G1 X55.293 Y87.186 E0.25017
G1 X57.718 Y86.516 E0.36732
G1 X60.171 Y85.764 E0.48679
G1 X62.58 Y84.95 E0.6052
G1 X64.948 Y84.074 E0.72276
G1 X67.286 Y83.133 E0.84012
G1 X69.62 Y82.117 E0.95865
G1 X71.924 Y81.034 E1.07719
G1 X74.264 Y79.854 E1.19922
G1 X74.963 Y79.482 E1.23609
G1 X75.417 Y79.255 E1.25973
G1 X76.762 Y78.625 E1.32889
G1 X80.107 Y77.138 E1.49934
G1 X80.706 Y76.881 E1.52969
G1 X81.551 Y76.562 E1.57175
G1 X82.409 Y76.322 E1.61324
G1 X83.617 Y76.042 E1.67098
G1 X87.171 Y75.287 E1.84016
G1 X87.851 Y75.152 E1.87244
G1 X88.743 Y75.016 E1.91445
G1 X89.638 Y74.959 E1.95621
G1 X90.864 Y74.937 E2.01331
G1 X94.549 Y74.938 E2.1849
G1 X95.193 Y74.947 E2.21489
G1 X96.094 Y75 E2.25692
G1 X96.971 Y75.128 E2.29819
G1 X98.035 Y75.332 E2.34863
G1 X101.65 Y76.099 E2.52071
G1 X102.442 Y76.279 E2.55853
G1 X103.313 Y76.519 E2.6006
G1 X104.126 Y76.821 E2.64098
G1 X105.31 Y77.322 E2.70085
G1 X108.462 Y78.725 E2.8615
G1 X109.269 Y79.097 E2.90288
G1 X110.293 Y79.641 E2.95687
G1 X110.859 Y79.985 E2.98771
G1 X113.068 Y81.284 E3.10704
G1 X115.306 Y82.517 E3.22602
G1 X117.536 Y83.665 E3.34281
G1 X119.872 Y84.785 E3.46344
G1 X122.153 Y85.799 E3.57967
G1 X124.558 Y86.789 E3.70078
G1 X126.871 Y87.665 E3.81595
G1 X129.29 Y88.503 E3.93515
G1 X131.715 Y89.268 E4.05356
G1 X134.169 Y89.966 E4.17236
G1 X136.628 Y90.592 E4.29051
G1 X139.095 Y91.146 E4.40824
G1 X141.605 Y91.633 E4.5273
G1 X144.087 Y92.044 E4.64445
G1 X146.612 Y92.389 E4.76311
G1 X149.138 Y92.662 E4.88142
G1 X151.662 Y92.863 E4.99932
G1 X154.245 Y92.995 E5.11975
G1 X156.016 Y93.043 E5.20225
G1 X160.295 Y93.118 E5.40153
G1 X162.048 Y93.133 E5.48316
G1 X164.454 Y93.134 E5.59519
G1 X165.152 Y93.145 E5.6277
G1 X166.053 Y93.199 E5.66972
G1 X166.946 Y93.333 E5.71177
G1 X167.824 Y93.545 E5.75383
G1 X168.68 Y93.834 E5.7959
G1 X169.506 Y94.198 E5.83793
G1 X170.298 Y94.633 E5.88001
G1 X171.047 Y95.137 E5.92204
G1 X171.75 Y95.705 E5.96413
G1 X172.399 Y96.332 E6.00615
G1 X172.99 Y97.015 E6.0482
G1 X173.519 Y97.747 E6.09026
G1 X173.98 Y98.524 E6.13233
G1 X174.371 Y99.338 E6.17438
G1 X174.689 Y100.183 E6.21642
G1 X174.93 Y101.053 E6.25845
G1 X175.094 Y101.941 E6.3005
G1 X175.187 Y103.056 E6.3526
G1 X175.2 Y103.663 E6.38087
G1 X175.199 Y116.057 E6.95799
G1 X175.19 Y116.784 E6.99184
G1 X175.139 Y117.686 E7.03391
G1 X175.008 Y118.58 E7.07598
G1 X174.799 Y119.458 E7.11801
G1 X174.513 Y120.315 E7.16008
G1 X174.152 Y121.143 E7.20214
G1 X173.72 Y121.935 E7.24415
G1 X173.219 Y122.687 E7.28622
G1 X172.653 Y123.391 E7.32829
G1 X172.028 Y124.042 E7.37031
G1 X171.347 Y124.636 E7.41239
G1 X170.616 Y125.167 E7.45446
G1 X169.842 Y125.631 E7.49648
G1 X169.029 Y126.025 E7.53854
G1 X168.185 Y126.345 E7.58058
G1 X167.315 Y126.59 E7.62266
G1 X166.428 Y126.756 E7.66468
G1 X165.277 Y126.854 E7.71847
G1 X164.67 Y126.867 E7.74674
G1 X162.091 Y126.867 E7.86683
G1 X160.356 Y126.882 E7.94762
G1 X156.06 Y126.956 E8.14769
G1 X153.42 Y127.039 E8.27068
G1 X150.855 Y127.193 E8.39033
G1 X148.355 Y127.414 E8.5072
G1 X145.818 Y127.71 E8.62613
G1 X143.341 Y128.071 E8.74269
G1 X140.803 Y128.515 E8.86267
G1 X138.305 Y129.024 E8.98137
G1 X135.853 Y129.595 E9.0986
G1 X133.391 Y130.245 E9.21717
G1 X130.98 Y130.954 E9.33419
G1 X128.519 Y131.754 E9.45469
G1 X126.177 Y132.59 E9.57048
G1 X123.768 Y133.526 E9.69083
G1 X121.419 Y134.517 E9.80954
G1 X119.138 Y135.556 E9.92625
G1 X116.848 Y136.679 E10.04502
G1 X114.61 Y137.855 E10.16274
G1 X112.377 Y139.112 E10.28206
G1 X110.331 Y140.338 E10.39312
G1 X109.419 Y140.823 E10.44122
G1 X108.239 Y141.374 E10.50186
G1 X104.894 Y142.862 E10.67234
G1 X104.295 Y143.119 E10.70269
G1 X103.45 Y143.438 E10.74474
G1 X102.59 Y143.678 E10.78632
G1 X101.383 Y143.958 E10.84401
G1 X97.829 Y144.713 E11.0132
G1 X97.149 Y144.848 E11.04548
G1 X96.257 Y144.984 E11.08749
G1 X95.362 Y145.041 E11.12925
G1 X94.136 Y145.063 E11.18635
G1 X90.451 Y145.062 E11.35794
G1 X89.807 Y145.053 E11.38793
G1 X88.906 Y145 E11.42996
G1 X88.029 Y144.872 E11.47123
G1 X86.965 Y144.668 E11.52167
G1 X83.35 Y143.901 E11.69375
G1 X82.558 Y143.721 E11.73157
G1 X81.687 Y143.481 E11.77364
G1 X80.873 Y143.178 E11.81408
G1 X79.681 Y142.674 E11.87434
G1 X76.538 Y141.275 E12.03454
G1 X75.713 Y140.894 E12.07685
G1 X74.356 Y140.225 E12.1473
G1 X74.184 Y140.151 E12.15602
G1 X72.983 Y139.555 E12.21845
G1 X70.66 Y138.484 E12.33756
G1 X68.353 Y137.498 E12.45439
G1 X65.937 Y136.545 E12.57532
G1 X63.586 Y135.695 E12.69173
G1 X61.187 Y134.903 E12.80937
G1 X58.741 Y134.171 E12.92825
G1 X56.287 Y133.512 E13.04657
G1 X52.697 Y132.676 E13.21821
G1 X51.827 Y132.433 E13.26027
G1 X50.982 Y132.114 E13.30233
G1 X50.169 Y131.721 E13.34437
G1 X49.394 Y131.257 E13.38643
G1 X48.663 Y130.727 E13.42848
G1 X47.981 Y130.135 E13.47053
G1 X47.355 Y129.484 E13.51258
G1 X46.789 Y128.781 E13.55461
G1 X46.287 Y128.03 E13.59667
G1 X45.853 Y127.238 E13.63873
G1 X45.491 Y126.41 E13.68081
G1 X45.204 Y125.554 E13.72284
G1 X44.994 Y124.676 E13.76488
G1 X44.862 Y123.782 E13.80696
G1 X44.813 Y123.017 E13.84266
G1 X44.8 Y122.408 E13.87102
G1 X44.801 Y98.3 E14.99359
G1 X44.811 Y97.609 E15.02577
G1 X44.864 Y96.708 E15.0678
G1 X44.997 Y95.815 E15.10984
G1 X45.208 Y94.936 E15.15193
G1 X45.496 Y94.08 E15.19398
G1 X45.858 Y93.253 E15.23602
G1 X46.292 Y92.461 E15.27807
G1 X46.795 Y91.711 E15.32012
G1 X47.362 Y91.008 E15.36218
G1 X47.989 Y90.358 E15.40423
G1 X48.671 Y89.766 E15.44628
G1 X49.403 Y89.237 E15.48834
G1 X50.178 Y88.774 E15.53037
M204 S2000
G0 F7500 X50.004 Y88.414
M204 S500
G1 F1500 X50.818 Y88.022 E15.57244
G1 X51.727 Y87.678 E15.6177
G1 X52.487 Y87.461 E15.6545
G1 X55.188 Y86.799 E15.78399
G1 X57.611 Y86.131 E15.90103
G1 X60.043 Y85.385 E16.01948
G1 X62.452 Y84.571 E16.13788
G1 X64.809 Y83.699 E16.25491
G1 X67.126 Y82.766 E16.37121
G1 X69.46 Y81.75 E16.48975
G1 X71.754 Y80.672 E16.60777
G1 X74.084 Y79.497 E16.72928
G1 X74.784 Y79.124 E16.76621
G1 X75.247 Y78.893 E16.79031
G1 X76.6 Y78.259 E16.85988
G1 X79.949 Y76.77 E17.03054
G1 X80.548 Y76.513 E17.06089
G1 X81.443 Y76.177 E17.10541
G1 X82.319 Y75.932 E17.14777
G1 X83.534 Y75.651 E17.20583
G1 X87.093 Y74.895 E17.37525
G1 X87.791 Y74.757 E17.40838
G1 X88.718 Y74.617 E17.45204
G1 X89.631 Y74.559 E17.49464
G1 X90.864 Y74.537 E17.55206
G1 X94.555 Y74.538 E17.72393
G1 X95.199 Y74.547 E17.75392
G1 X96.152 Y74.604 E17.79837
G1 X97.046 Y74.735 E17.84045
G1 X98.118 Y74.941 E17.89128
G1 X101.739 Y75.709 E18.06364
G1 X102.548 Y75.893 E18.10227
G1 X103.419 Y76.133 E18.14434
G1 X104.282 Y76.453 E18.1872
G1 X105.473 Y76.957 E18.24742
G1 X108.629 Y78.362 E18.40828
G1 X109.457 Y78.744 E18.45074
G1 X110.501 Y79.299 E18.50579
G1 X111.062 Y79.64 E18.53636
G1 X113.271 Y80.939 E18.65569
G1 X115.489 Y82.161 E18.77361
G1 X117.709 Y83.304 E18.88988
G1 X120.042 Y84.422 E19.01034
G1 X122.315 Y85.433 E19.12618
G1 X124.7 Y86.415 E19.24628
G1 X127.002 Y87.287 E19.3609
G1 X129.421 Y88.125 E19.48011
G1 X131.824 Y88.883 E19.59744
G1 X134.268 Y89.578 E19.71575
G1 X136.727 Y90.204 E19.8339
G1 X139.171 Y90.753 E19.95054
G1 X141.675 Y91.239 E20.06932
G1 X144.152 Y91.649 E20.18622
G1 X146.655 Y91.991 E20.30386
G1 X149.177 Y92.264 E20.42198
G1 X151.694 Y92.465 E20.53955
G1 X154.256 Y92.595 E20.65901
G1 X156.027 Y92.643 E20.7415
G1 X160.302 Y92.718 E20.94059
G1 X162.051 Y92.733 E21.02204
G1 X164.46 Y92.734 E21.13421
G1 X165.176 Y92.746 E21.16755
G1 X166.112 Y92.803 E21.21122
G1 X167.005 Y92.937 E21.25327
G1 X167.918 Y93.156 E21.29699
G1 X168.808 Y93.455 E21.3407
G1 X169.699 Y93.847 E21.38603
G1 X170.491 Y94.282 E21.42811
G1 X171.27 Y94.805 E21.4718
G1 X172.028 Y95.417 E21.51716
G1 X172.677 Y96.044 E21.55918
G1 X173.292 Y96.753 E21.60288
G1 X173.863 Y97.543 E21.64827
G1 X174.341 Y98.351 E21.69199
G1 X174.732 Y99.165 E21.73404
G1 X175.074 Y100.076 E21.77935
G1 X175.323 Y100.98 E21.82301
G1 X175.493 Y101.908 E21.86694
G1 X175.587 Y103.047 E21.92016
G1 X175.6 Y103.663 E21.94885
G1 X175.599 Y116.062 E22.52619
G1 X175.589 Y116.807 E22.56089
G1 X175.535 Y117.744 E22.60459
G1 X175.404 Y118.638 E22.64666
G1 X175.188 Y119.551 E22.69035
G1 X174.88 Y120.475 E22.7357
G1 X174.519 Y121.303 E22.77776
G1 X174.053 Y122.157 E22.82306
G1 X173.531 Y122.938 E22.86681
G1 X172.965 Y123.642 E22.90887
G1 X172.317 Y124.319 E22.95251
G1 X171.582 Y124.96 E22.99792
G1 X170.851 Y125.491 E23.03999
G1 X170.048 Y125.974 E23.08362
G1 X169.171 Y126.399 E23.129
G1 X168.327 Y126.719 E23.17103
G1 X167.389 Y126.983 E23.21641
G1 X166.462 Y127.155 E23.26031
G1 X165.311 Y127.253 E23.3141
G1 X164.679 Y127.267 E23.34353
G1 X162.094 Y127.267 E23.4639
G1 X160.363 Y127.282 E23.54451
G1 X156.073 Y127.356 E23.7443
G1 X153.433 Y127.439 E23.86729
G1 X150.879 Y127.592 E23.98642
G1 X148.401 Y127.811 E24.10226
G1 X145.876 Y128.106 E24.22063
G1 X143.399 Y128.467 E24.33719
G1 X140.883 Y128.907 E24.45613
G1 X138.396 Y129.414 E24.57431
G1 X135.944 Y129.985 E24.69154
G1 X133.504 Y130.629 E24.80905
G1 X131.093 Y131.338 E24.92607
G1 X128.653 Y132.131 E25.04554
G1 X126.322 Y132.963 E25.16078
G1 X123.923 Y133.895 E25.28063
G1 X121.574 Y134.886 E25.39934
G1 X119.304 Y135.92 E25.51549
G1 X117.024 Y137.038 E25.63373
G1 X114.806 Y138.204 E25.75041
G1 X112.573 Y139.461 E25.86974
G1 X110.519 Y140.691 E25.98122
G1 X109.588 Y141.185 E26.03029
G1 X108.402 Y141.739 E26.09124
G1 X105.052 Y143.23 E26.26199
G1 X104.453 Y143.487 E26.29234
G1 X103.558 Y143.823 E26.33685
G1 X102.68 Y144.068 E26.3793
G1 X101.466 Y144.349 E26.43732
G1 X97.907 Y145.105 E26.60674
G1 X97.209 Y145.243 E26.63987
G1 X96.282 Y145.383 E26.68353
G1 X95.369 Y145.441 E26.72613
G1 X94.143 Y145.463 E26.78322
G1 X90.445 Y145.462 E26.95542
G1 X89.801 Y145.453 E26.98541
G1 X88.848 Y145.396 E27.02986
G1 X87.954 Y145.265 E27.07193
G1 X86.882 Y145.059 E27.12276
G1 X83.261 Y144.291 E27.29512
G1 X82.452 Y144.107 E27.33376
G1 X81.547 Y143.856 E27.37749
G1 X80.717 Y143.546 E27.41874
G1 X79.518 Y143.039 E27.47936
G1 X76.37 Y141.638 E27.63981
G1 X75.536 Y141.253 E27.68258
G1 X74.179 Y140.584 E27.75303
G1 X74.006 Y140.509 E27.76181
G1 X72.805 Y139.913 E27.82424
G1 X70.503 Y138.852 E27.94227
G1 X68.196 Y137.866 E28.05909
G1 X65.79 Y136.917 E28.17952
G1 X63.461 Y136.075 E28.29484
G1 X61.062 Y135.283 E28.41248
G1 X58.626 Y134.554 E28.53088
G1 X56.196 Y133.902 E28.64803
G1 X52.606 Y133.066 E28.81967
G1 X51.719 Y132.818 E28.86256
G1 X50.808 Y132.474 E28.9079
G1 X49.995 Y132.081 E28.94995
G1 X49.159 Y131.581 E28.99531
G1 X48.428 Y131.051 E29.03735
G1 X47.719 Y130.437 E29.08102
G1 X47.043 Y129.735 E29.1264
G1 X46.477 Y129.032 E29.16843
G1 X45.954 Y128.252 E29.21216
G1 X45.486 Y127.398 E29.2575
G1 X45.124 Y126.57 E29.29958
G1 X44.815 Y125.647 E29.34491
G1 X44.598 Y124.734 E29.3886
G1 X44.466 Y123.84 E29.43068
G1 X44.413 Y123.026 E29.46867
G1 X44.4 Y122.408 E29.49745
G1 X44.401 Y98.294 E30.6203
G1 X44.411 Y97.603 E30.65248
G1 X44.468 Y96.649 E30.69698
G1 X44.601 Y95.756 E30.73902
G1 X44.829 Y94.808 E30.78442
G1 X45.117 Y93.952 E30.82648
G1 X45.507 Y93.061 E30.87177
G1 X45.96 Y92.238 E30.91551
G1 X46.463 Y91.488 E30.95756
G1 X47.074 Y90.73 E31.00289
G1 X47.701 Y90.08 E31.04495
G1 X48.409 Y89.464 E31.08865
G1 X49.169 Y88.913 E31.13236
G1 X50.004 Y88.414 E31.17765
M204 S2000
G0 F7500 X49.83 Y88.054
M204 S500
G1 F1500 X50.676 Y87.648 E31.22135
G1 X51.617 Y87.293 E31.26818
G1 X52.392 Y87.072 E31.3057
G1 X55.093 Y86.41 E31.4352
G1 X57.505 Y85.746 E31.55169
G1 X59.915 Y85.006 E31.66908
G1 X62.324 Y84.192 E31.78748
G1 X64.67 Y83.324 E31.90396
G1 X66.966 Y82.399 E32.01922
G1 X69.3 Y81.383 E32.13775
G1 X71.584 Y80.31 E32.25526
G1 X73.904 Y79.14 E32.37625
G1 X74.605 Y78.766 E32.41324
G1 X75.077 Y78.531 E32.43779
G1 X76.437 Y77.893 E32.50774
G1 X79.791 Y76.402 E32.67866
G1 X80.39 Y76.145 E32.70901
G1 X81.335 Y75.792 E32.75598
G1 X82.229 Y75.542 E32.7992
G1 X83.451 Y75.26 E32.8576
G1 X87.015 Y74.503 E33.02726
G1 X87.731 Y74.361 E33.06125
G1 X88.658 Y74.221 E33.1049
G1 X89.624 Y74.159 E33.14998
G1 X90.864 Y74.137 E33.20772
G1 X94.561 Y74.138 E33.37987
G1 X95.223 Y74.148 E33.4107
G1 X96.21 Y74.208 E33.45675
G1 X97.121 Y74.342 E33.49962
G1 X98.201 Y74.55 E33.55083
G1 X101.828 Y75.319 E33.72348
G1 X102.654 Y75.507 E33.76292
G1 X103.525 Y75.747 E33.80499
G1 X104.438 Y76.085 E33.85032
G1 X105.636 Y76.592 E33.9109
G1 X108.797 Y77.999 E34.07201
G1 X109.645 Y78.391 E34.11551
G1 X110.709 Y78.957 E34.17163
G1 X111.265 Y79.295 E34.20193
G1 X113.474 Y80.594 E34.32126
G1 X115.672 Y81.805 E34.43811
G1 X117.882 Y82.943 E34.55386
G1 X120.215 Y84.061 E34.67432
G1 X122.467 Y85.063 E34.7891
G1 X124.842 Y86.041 E34.90869
G1 X127.133 Y86.909 E35.02277
G1 X129.552 Y87.747 E35.14198
G1 X131.933 Y88.498 E35.25823
G1 X134.367 Y89.19 E35.37606
G1 X136.826 Y89.816 E35.49422
G1 X139.247 Y90.36 E35.60976
G1 X141.745 Y90.845 E35.72825
G1 X144.217 Y91.254 E35.84492
G1 X146.698 Y91.593 E35.96152
G1 X149.216 Y91.866 E36.07945
G1 X151.726 Y92.067 E36.1967
G1 X154.267 Y92.195 E36.31517
G1 X156.038 Y92.243 E36.39767
G1 X160.309 Y92.318 E36.59658
G1 X162.054 Y92.333 E36.67783
G1 X164.467 Y92.334 E36.79019
G1 X165.2 Y92.347 E36.82433
G1 X166.171 Y92.407 E36.86963
G1 X167.064 Y92.541 E36.91168
G1 X168.011 Y92.767 E36.95701
G1 X168.969 Y93.089 E37.00407
G1 X169.892 Y93.496 E37.05104
G1 X170.684 Y93.931 E37.09312
G1 X171.493 Y94.473 E37.13846
G1 X172.306 Y95.129 E37.18711
G1 X172.955 Y95.756 E37.22913
G1 X173.594 Y96.491 E37.27448
G1 X174.207 Y97.339 E37.3232
G1 X174.702 Y98.178 E37.36856
G1 X175.093 Y98.992 E37.41061
G1 X175.46 Y99.97 E37.45925
G1 X175.709 Y100.874 E37.50291
G1 X175.892 Y101.875 E37.55029
G1 X175.986 Y103.014 E37.60351
G1 X176 Y103.663 E37.63374
G1 X175.999 Y116.067 E38.21132
G1 X175.988 Y116.83 E38.24685
G1 X175.931 Y117.802 E38.29219
G1 X175.8 Y118.696 E38.33426
G1 X175.577 Y119.643 E38.37957
G1 X175.247 Y120.635 E38.42825
G1 X174.886 Y121.463 E38.47031
G1 X174.386 Y122.379 E38.5189
G1 X173.843 Y123.189 E38.56431
G1 X173.277 Y123.893 E38.60637
G1 X172.606 Y124.596 E38.65162
G1 X171.817 Y125.284 E38.70037
G1 X171.086 Y125.815 E38.74244
G1 X170.254 Y126.317 E38.78769
G1 X169.313 Y126.773 E38.83638
G1 X168.469 Y127.093 E38.87841
G1 X167.497 Y127.368 E38.92544
G1 X166.496 Y127.554 E38.97285
G1 X165.345 Y127.652 E39.02664
G1 X164.688 Y127.667 E39.05724
G1 X162.097 Y127.667 E39.17789
G1 X160.37 Y127.682 E39.25831
G1 X156.086 Y127.756 E39.45782
G1 X153.446 Y127.839 E39.58081
G1 X150.903 Y127.991 E39.69943
G1 X148.447 Y128.208 E39.81424
G1 X145.934 Y128.502 E39.93205
G1 X143.457 Y128.863 E40.04861
G1 X140.963 Y129.299 E40.16651
G1 X138.487 Y129.804 E40.28417
G1 X136.035 Y130.375 E40.4014
G1 X133.617 Y131.013 E40.51785
G1 X131.206 Y131.722 E40.63487
G1 X128.787 Y132.508 E40.7533
G1 X126.467 Y133.336 E40.86801
G1 X124.078 Y134.264 E40.98735
G1 X121.729 Y135.255 E41.10606
G1 X119.47 Y136.284 E41.22165
G1 X117.2 Y137.397 E41.33937
G1 X115.002 Y138.553 E41.45501
G1 X112.769 Y139.81 E41.57433
G1 X110.725 Y141.034 E41.68527
G1 X109.757 Y141.547 E41.73628
G1 X108.565 Y142.104 E41.79755
G1 X105.21 Y143.598 E41.96856
G1 X104.611 Y143.855 E41.99891
G1 X103.666 Y144.208 E42.04588
G1 X102.77 Y144.458 E42.0892
G1 X101.549 Y144.74 E42.14755
G1 X97.985 Y145.497 E42.3172
G1 X97.269 Y145.639 E42.35119
G1 X96.342 Y145.779 E42.39485
G1 X95.376 Y145.841 E42.43992
