;FLAVOR:Marlin
;TIME:1881
;Filament used: 1.48194m
;Layer height: 0.28
;MINX:65.641
;MINY:90.37
;MINZ:0.28
;MAXX:155.641
;MAXY:147.035
;MAXZ:3.92
;Generated with Cura_SteamEngine 5.3.0
M82 ;absolute extrusion mode
; Ender 3 S1 Start G-code
G92 E0 ; Reset Extruder
G28 ; Home all axes
G1 Z10.0 F3000 ; Move Z Axis up little to prevent scratching of Heat Bed
G1 X0 Y0

M104 S200
M190 S60
M109 S200

G1 X0.1 Y20 Z0.3 F5000.0 ; Move to start position
G1 X0.1 Y200.0 Z0.3 F1500.0 E15 ; Draw the first line
G1 X0.4 Y200.0 Z0.3 F5000.0 ; Move to side a little
G1 X0.4 Y20 Z0.3 F1500.0 E30 ; Draw the second line
G92 E0 ; Reset Extruder
G1 Z2.0 F3000 ; Move Z Axis up little to prevent scratching of Heat Bed
G1 X5 Y20 Z0.3 F5000.0 ; Move over to prevent blob squish

G92 E0
G92 E0
G1 F2400 E-0.8
;LAYER_COUNT:14
;LAYER:0
M107
M204 S2000
G0 F7500 X78.149 Y96.134 Z0.28
M204 S500
;TYPE:SKIRT
G1 F2400 E0
G1 F1500 X78.88 Y95.602 E0.0421
G1 X79.654 Y95.138 E0.08412
G1 X80.467 Y94.744 E0.12619
G1 X81.311 Y94.423 E0.16823
G1 X82.18 Y94.178 E0.21028
G1 X83.053 Y94.013 E0.25165
G1 X83.851 Y93.898 E0.28919
G1 X85.057 Y93.741 E0.34582
G1 X87.559 Y93.346 E0.46376
G1 X90.033 Y92.884 E0.58096
G1 X92.534 Y92.343 E0.70011
G1 X93.696 Y92.051 E0.7559
G1 X95.113 Y91.714 E0.82372
G1 X95.99 Y91.542 E0.86533
G1 X97.222 Y91.361 E0.92332
G1 X98.244 Y91.237 E0.97125
G1 X99.145 Y91.168 E1.01333
G1 X100.048 Y91.179 E1.05538
G1 X100.619 Y91.228 E1.08207
G1 X101.574 Y91.336 E1.12682
G1 X102.885 Y91.519 E1.18846
G1 X103.764 Y91.683 E1.23009
G1 X104.543 Y91.865 E1.26734
G1 X105.615 Y92.133 E1.3188
G1 X108.072 Y92.673 E1.43593
G1 X110.638 Y93.162 E1.55757
G1 X113.087 Y93.556 E1.67307
G1 X115.606 Y93.889 E1.79139
G1 X118.173 Y94.156 E1.91156
G1 X120.659 Y94.343 E2.02765
G1 X123.255 Y94.465 E2.14866
G1 X124.663 Y94.5 E2.21424
G1 X132.351 Y94.634 E2.57228
G1 X134.953 Y94.65 E2.69345
G1 X135.655 Y94.661 E2.72614
G1 X136.556 Y94.715 E2.76817
G1 X137.449 Y94.849 E2.81022
G1 X138.327 Y95.061 E2.85227
G1 X139.183 Y95.35 E2.89434
G1 X140.01 Y95.714 E2.93642
G1 X140.801 Y96.149 E2.97845
G1 X141.551 Y96.652 E3.0205
G1 X142.253 Y97.22 E3.06255
G1 X142.902 Y97.848 E3.1046
G1 X143.494 Y98.53 E3.14665
G1 X144.022 Y99.263 E3.18872
G1 X144.398 Y99.883 E3.22248
G1 X144.717 Y100.454 E3.25294
G1 X145.482 Y101.867 E3.32776
G1 X146.759 Y104.078 E3.44665
G1 X148.081 Y106.222 E3.56393
G1 X149.473 Y108.345 E3.68215
G1 X150.909 Y110.404 E3.79904
G1 X152.744 Y112.875 E3.94235
G1 X153.259 Y113.617 E3.98441
G1 X153.707 Y114.402 E4.0265
G1 X154.083 Y115.223 E4.06854
G1 X154.385 Y116.074 E4.11059
G1 X154.611 Y116.948 E4.15263
G1 X154.758 Y117.839 E4.19468
G1 X154.826 Y118.727 E4.23615
G1 X154.841 Y119.366 E4.26591
G1 X154.84 Y131.776 E4.84377
G1 X154.831 Y132.503 E4.87763
G1 X154.78 Y133.405 E4.91969
G1 X154.649 Y134.299 E4.96177
G1 X154.44 Y135.177 E5.00379
G1 X154.154 Y136.034 E5.04586
G1 X153.793 Y136.862 E5.08792
G1 X153.361 Y137.654 E5.12993
G1 X152.86 Y138.406 E5.17201
G1 X152.294 Y139.11 E5.21407
G1 X151.669 Y139.761 E5.25609
G1 X150.988 Y140.355 E5.29817
G1 X150.257 Y140.886 E5.34024
G1 X149.483 Y141.35 E5.38226
G1 X148.67 Y141.744 E5.42433
G1 X147.826 Y142.064 E5.46636
G1 X146.956 Y142.309 E5.50844
G1 X145.794 Y142.511 E5.56336
G1 X143.964 Y142.722 E5.64914
G1 X141.441 Y143.059 E5.76766
G1 X138.921 Y143.469 E5.88655
G1 X136.418 Y143.95 E6.00523
G1 X133.967 Y144.492 E6.12212
G1 X130.962 Y145.256 E6.26649
G1 X129.951 Y145.531 E6.31528
G1 X128.785 Y145.776 E6.37076
G1 X127.849 Y145.916 E6.41483
G1 X126.534 Y146.09 E6.4766
G1 X125.85 Y146.17 E6.50866
G1 X124.949 Y146.235 E6.55073
G1 X124.046 Y146.22 E6.59278
G1 X123.513 Y146.174 E6.61769
G1 X122.427 Y146.049 E6.66859
G1 X121.417 Y145.916 E6.71603
G1 X120.595 Y145.797 E6.7547
G1 X119.315 Y145.527 E6.81562
G1 X116.821 Y144.83 E6.9362
G1 X114.337 Y144.212 E7.05539
G1 X111.89 Y143.675 E7.17204
G1 X109.372 Y143.196 E7.29139
G1 X106.864 Y142.792 E7.40968
G1 X104.366 Y142.463 E7.52701
G1 X101.858 Y142.204 E7.64441
G1 X99.283 Y142.012 E7.76464
G1 X96.738 Y141.894 E7.88328
G1 X95.359 Y141.859 E7.94751
G1 X80.55 Y141.601 E8.63718
G1 X78.807 Y141.586 E8.71835
G1 X77.187 Y141.585 E8.79378
G1 X76.489 Y141.574 E8.82629
G1 X75.588 Y141.52 E8.86832
G1 X74.695 Y141.386 E8.91037
G1 X73.817 Y141.174 E8.95242
G1 X72.961 Y140.885 E8.99449
G1 X72.135 Y140.521 E9.03652
G1 X71.343 Y140.086 E9.0786
G1 X70.594 Y139.582 E9.12064
G1 X69.891 Y139.014 E9.16272
G1 X69.242 Y138.387 E9.20474
G1 X68.651 Y137.704 E9.2468
G1 X68.122 Y136.972 E9.28885
G1 X67.661 Y136.195 E9.33092
G1 X67.27 Y135.381 E9.37297
G1 X66.952 Y134.536 E9.41501
G1 X66.711 Y133.666 E9.45705
G1 X66.547 Y132.778 E9.4991
G1 X66.454 Y131.652 E9.55171
G1 X66.441 Y131.044 E9.58002
G1 X66.442 Y121.281 E10.03463
G1 X66.452 Y120.577 E10.06741
G1 X66.505 Y119.676 E10.10944
G1 X66.637 Y118.782 E10.15152
G1 X66.848 Y117.904 E10.19357
G1 X67.136 Y117.048 E10.23562
G1 X67.498 Y116.221 E10.27766
G1 X67.819 Y115.62 E10.30938
G1 X68.329 Y114.737 E10.35687
G1 X69.597 Y112.463 E10.4781
G1 X70.771 Y110.211 E10.59636
G1 X71.884 Y107.922 E10.71488
G1 X72.923 Y105.618 E10.83256
G1 X73.911 Y103.257 E10.95174
G1 X74.985 Y100.456 E11.09143
G1 X75.345 Y99.628 E11.13347
G1 X75.778 Y98.835 E11.17554
G1 X76.278 Y98.083 E11.21759
G1 X76.844 Y97.379 E11.25965
G1 X77.469 Y96.727 E11.30171
G1 X78.149 Y96.134 E11.34372
M204 S2000
G0 F7500 X77.886 Y95.833
M204 S500
G1 F1500 X78.674 Y95.259 E11.38911
G1 X79.448 Y94.795 E11.43113
G1 X80.325 Y94.37 E11.47651
G1 X81.202 Y94.038 E11.52018
G1 X82.071 Y93.793 E11.56222
G1 X82.996 Y93.617 E11.60606
G1 X83.799 Y93.501 E11.64384
G1 X85.005 Y93.344 E11.70047
G1 X87.497 Y92.951 E11.81795
G1 X89.948 Y92.493 E11.93405
G1 X92.449 Y91.952 E12.0532
G1 X93.603 Y91.662 E12.10861
G1 X95.036 Y91.321 E12.1772
G1 X95.932 Y91.146 E12.21971
G1 X97.174 Y90.964 E12.27816
G1 X98.213 Y90.838 E12.32689
G1 X99.114 Y90.769 E12.36897
G1 X100.082 Y90.78 E12.41405
G1 X100.653 Y90.829 E12.44073
G1 X101.629 Y90.94 E12.48647
G1 X102.958 Y91.126 E12.54896
G1 X103.855 Y91.293 E12.59144
G1 X104.64 Y91.477 E12.62899
G1 X105.701 Y91.742 E12.67991
G1 X108.158 Y92.282 E12.79705
G1 X110.705 Y92.768 E12.91779
G1 X113.139 Y93.159 E13.03258
G1 X115.658 Y93.492 E13.15089
G1 X118.208 Y93.757 E13.27027
G1 X120.678 Y93.943 E13.38561
G1 X123.274 Y94.065 E13.50662
G1 X124.673 Y94.1 E13.57179
G1 X132.358 Y94.234 E13.92969
G1 X134.959 Y94.25 E14.0508
G1 X135.679 Y94.262 E14.08433
G1 X136.615 Y94.319 E14.128
G1 X137.508 Y94.453 E14.17005
G1 X138.421 Y94.672 E14.21377
G1 X139.311 Y94.971 E14.25748
G1 X140.171 Y95.348 E14.30121
G1 X141.024 Y95.817 E14.34654
G1 X141.803 Y96.341 E14.39025
G1 X142.505 Y96.909 E14.4323
G1 X143.204 Y97.586 E14.47761
G1 X143.819 Y98.296 E14.52135
G1 X144.347 Y99.029 E14.56341
G1 X144.747 Y99.688 E14.59931
G1 X145.069 Y100.264 E14.63004
G1 X145.834 Y101.677 E14.70486
G1 X147.099 Y103.868 E14.82266
G1 X148.416 Y106.003 E14.93947
G1 X149.801 Y108.116 E15.05711
G1 X151.237 Y110.175 E15.174
G1 X153.073 Y112.647 E15.31739
G1 X153.588 Y113.389 E15.35944
G1 X154.071 Y114.235 E15.4048
G1 X154.447 Y115.056 E15.44685
G1 X154.762 Y115.94 E15.49055
G1 X155.006 Y116.883 E15.53591
G1 X155.153 Y117.774 E15.57796
G1 X155.226 Y118.718 E15.62204
G1 X155.241 Y119.366 E15.65222
G1 X155.24 Y131.781 E16.23032
G1 X155.23 Y132.526 E16.26501
G1 X155.176 Y133.463 E16.30872
G1 X155.045 Y134.357 E16.35079
G1 X154.829 Y135.27 E16.39448
G1 X154.521 Y136.194 E16.43983
G1 X154.16 Y137.022 E16.48189
G1 X153.694 Y137.876 E16.52719
G1 X153.172 Y138.657 E16.57093
G1 X152.606 Y139.361 E16.61299
G1 X151.958 Y140.038 E16.65663
G1 X151.223 Y140.679 E16.70204
G1 X150.492 Y141.21 E16.74411
G1 X149.689 Y141.693 E16.78775
G1 X148.812 Y142.118 E16.83313
G1 X147.968 Y142.438 E16.87516
G1 X147.025 Y142.703 E16.92077
G1 X145.84 Y142.908 E16.97676
G1 X144.01 Y143.119 E17.06254
G1 X141.505 Y143.454 E17.18022
G1 X138.989 Y143.863 E17.29892
G1 X136.504 Y144.341 E17.41675
G1 X134.062 Y144.881 E17.53321
G1 X131.061 Y145.644 E17.67739
G1 X130.056 Y145.917 E17.72588
G1 X128.844 Y146.172 E17.78356
G1 X127.901 Y146.313 E17.82795
G1 X126.58 Y146.487 E17.89
G1 X125.879 Y146.569 E17.92286
G1 X124.942 Y146.635 E17.9666
G1 X124.012 Y146.619 E18.00991
G1 X123.467 Y146.571 E18.03539
G1 X122.375 Y146.446 E18.08657
G1 X121.36 Y146.312 E18.13424
G1 X120.538 Y146.193 E18.17291
G1 X119.207 Y145.912 E18.23626
G1 X116.724 Y145.218 E18.35631
G1 X114.251 Y144.603 E18.47497
G1 X111.804 Y144.066 E18.59162
G1 X109.308 Y143.591 E18.70993
G1 X106.812 Y143.189 E18.82765
G1 X104.314 Y142.86 E18.94498
G1 X101.823 Y142.603 E19.06158
G1 X99.264 Y142.412 E19.18107
G1 X96.719 Y142.294 E19.2997
G1 X95.349 Y142.259 E19.36352
G1 X80.543 Y142.001 E20.05305
G1 X78.804 Y141.986 E20.13403
G1 X77.181 Y141.985 E20.2096
G1 X76.465 Y141.973 E20.24295
G1 X75.529 Y141.916 E20.28661
G1 X74.636 Y141.782 E20.32866
G1 X73.723 Y141.563 E20.37238
G1 X72.833 Y141.264 E20.4161
G1 X71.942 Y140.872 E20.46143
G1 X71.15 Y140.437 E20.5035
G1 X70.371 Y139.914 E20.54719
G1 X69.613 Y139.302 E20.59255
G1 X68.964 Y138.675 E20.63457
G1 X68.349 Y137.966 E20.67828
G1 X67.778 Y137.176 E20.72367
G1 X67.3 Y136.368 E20.76738
G1 X66.909 Y135.554 E20.80943
G1 X66.567 Y134.643 E20.85474
G1 X66.318 Y133.739 E20.8984
G1 X66.148 Y132.811 E20.94233
G1 X66.054 Y131.661 E20.99606
G1 X66.041 Y131.044 E21.0248
G1 X66.042 Y121.275 E21.47968
G1 X66.052 Y120.571 E21.51247
G1 X66.109 Y119.618 E21.55692
G1 X66.241 Y118.724 E21.599
G1 X66.469 Y117.776 E21.6444
G1 X66.757 Y116.92 E21.68646
G1 X67.145 Y116.033 E21.73154
G1 X67.473 Y115.42 E21.76391
G1 X67.983 Y114.537 E21.81139
G1 X69.242 Y112.278 E21.93182
G1 X70.416 Y110.026 E22.05007
G1 X71.524 Y107.747 E22.16807
G1 X72.558 Y105.454 E22.28519
G1 X73.542 Y103.103 E22.40387
G1 X74.618 Y100.297 E22.5438
G1 X74.994 Y99.436 E22.58755
G1 X75.427 Y98.643 E22.62962
G1 X75.966 Y97.832 E22.67497
G1 X76.532 Y97.128 E22.71703
G1 X77.18 Y96.45 E22.7607
G1 X77.886 Y95.833 E22.80436
M204 S2000
G0 F7500 X77.65 Y95.51
M204 S500
G1 F1500 X78.468 Y94.916 E22.85143
G1 X79.242 Y94.452 E22.89345
G1 X80.183 Y93.996 E22.94214
G1 X81.093 Y93.653 E22.98743
G1 X81.996 Y93.4 E23.03109
G1 X82.939 Y93.221 E23.07579
G1 X83.747 Y93.104 E23.1138
G1 X84.953 Y92.947 E23.17043
G1 X87.435 Y92.556 E23.28743
G1 X89.863 Y92.102 E23.40245
G1 X92.364 Y91.561 E23.5216
G1 X93.51 Y91.273 E23.57662
G1 X94.959 Y90.928 E23.64598
G1 X95.874 Y90.75 E23.68938
G1 X97.126 Y90.567 E23.7483
G1 X98.182 Y90.439 E23.79783
G1 X99.083 Y90.37 E23.83991
G1 X100.116 Y90.381 E23.88801
G1 X100.687 Y90.43 E23.9147
G1 X101.684 Y90.544 E23.96143
G1 X103.031 Y90.733 E24.02476
G1 X103.946 Y90.904 E24.06811
G1 X104.737 Y91.089 E24.10593
G1 X105.787 Y91.351 E24.15632
G1 X108.244 Y91.891 E24.27346
G1 X110.778 Y92.375 E24.39359
G1 X113.191 Y92.762 E24.50739
G1 X115.71 Y93.095 E24.6257
G1 X118.243 Y93.358 E24.74428
G1 X120.697 Y93.543 E24.85888
G1 X123.293 Y93.665 E24.97989
G1 X124.683 Y93.7 E25.04463
G1 X132.365 Y93.834 E25.40239
G1 X134.966 Y93.85 E25.52351
G1 X135.703 Y93.863 E25.55783
G1 X136.674 Y93.923 E25.60313
G1 X137.567 Y94.057 E25.64518
G1 X138.514 Y94.283 E25.69052
G1 X139.472 Y94.605 E25.73758
G1 X140.364 Y94.997 E25.78295
G1 X141.217 Y95.466 E25.82827
G1 X142.055 Y96.03 E25.87531
G1 X142.757 Y96.598 E25.91736
G1 X143.506 Y97.324 E25.96593
G1 X144.144 Y98.062 E26.01135
G1 X144.689 Y98.821 E26.05486
G1 X145.096 Y99.493 E26.09145
G1 X145.421 Y100.074 E26.12244
G1 X146.186 Y101.487 E26.19726
G1 X147.439 Y103.658 E26.31398
G1 X148.751 Y105.784 E26.43031
G1 X150.129 Y107.887 E26.54739
G1 X151.558 Y109.936 E26.66371
G1 X153.402 Y112.419 E26.80772
G1 X153.917 Y113.161 E26.84978
G1 X154.435 Y114.068 E26.89842
G1 X154.811 Y114.889 E26.94046
G1 X155.139 Y115.806 E26.98581
G1 X155.401 Y116.818 E27.03449
G1 X155.548 Y117.709 E27.07654
G1 X155.626 Y118.709 E27.12324
G1 X155.641 Y119.366 E27.15384
G1 X155.64 Y131.786 E27.73217
G1 X155.629 Y132.549 E27.7677
G1 X155.572 Y133.521 E27.81304
G1 X155.441 Y134.415 E27.85512
G1 X155.218 Y135.362 E27.90042
G1 X154.888 Y136.354 E27.9491
G1 X154.527 Y137.182 E27.99116
G1 X154.027 Y138.098 E28.03975
G1 X153.484 Y138.908 E28.08516
G1 X152.918 Y139.612 E28.12722
G1 X152.247 Y140.315 E28.17247
G1 X151.458 Y141.003 E28.22122
G1 X150.727 Y141.534 E28.26329
G1 X149.895 Y142.036 E28.30854
G1 X148.954 Y142.492 E28.35723
G1 X148.11 Y142.812 E28.39926
G1 X147.093 Y143.097 E28.44844
G1 X145.886 Y143.305 E28.50547
G1 X144.056 Y143.516 E28.59125
G1 X141.569 Y143.849 E28.70808
G1 X139.065 Y144.256 E28.82621
G1 X136.59 Y144.732 E28.94357
G1 X134.157 Y145.27 E29.0596
G1 X131.16 Y146.032 E29.20359
G1 X130.161 Y146.303 E29.25179
G1 X128.903 Y146.568 E29.31165
G1 X127.953 Y146.71 E29.35638
G1 X126.626 Y146.884 E29.4187
G1 X125.907 Y146.968 E29.45241
G1 X124.935 Y147.035 E29.49777
G1 X124.005 Y147.019 E29.54109
G1 X123.422 Y146.968 E29.56834
G1 X122.323 Y146.843 E29.61984
G1 X121.303 Y146.708 E29.66775
G1 X120.481 Y146.589 E29.70643
G1 X119.099 Y146.297 E29.7722
G1 X116.627 Y145.606 E29.89172
G1 X114.165 Y144.994 E30.00985
G1 X111.718 Y144.457 E30.1265
G1 X109.244 Y143.986 E30.24377
G1 X106.76 Y143.586 E30.36092
G1 X104.262 Y143.257 E30.47825
G1 X101.788 Y143.002 E30.59406
G1 X99.245 Y142.812 E30.7128
G1 X96.7 Y142.694 E30.83143
G1 X95.339 Y142.659 E30.89483
G1 X80.536 Y142.401 E31.58422
G1 X78.801 Y142.386 E31.66501
G1 X77.174 Y142.385 E31.74077
G1 X76.441 Y142.372 E31.77491
G1 X75.47 Y142.312 E31.82021
G1 X74.577 Y142.178 E31.86226
G1 X73.63 Y141.952 E31.90759
G1 X72.672 Y141.63 E31.95465
G1 X71.749 Y141.223 E32.00163
G1 X70.957 Y140.788 E32.0437
G1 X70.148 Y140.246 E32.08904
G1 X69.335 Y139.59 E32.13769
G1 X68.686 Y138.963 E32.17971
G1 X68.047 Y138.228 E32.22506
G1 X67.434 Y137.38 E32.27378
G1 X66.939 Y136.541 E32.31914
G1 X66.548 Y135.727 E32.36119
G1 X66.181 Y134.749 E32.40983
G1 X65.932 Y133.845 E32.45349
G1 X65.749 Y132.844 E32.50088
G1 X65.655 Y131.694 E32.5546
G1 X65.641 Y131.044 E32.58488
G1 X65.642 Y121.269 E33.04004
G1 X65.653 Y120.547 E33.07366
G1 X65.713 Y119.56 E33.11971
G1 X65.852 Y118.63 E33.16349
G1 X66.08 Y117.682 E33.2089
G1 X66.378 Y116.792 E33.2526
G1 X66.792 Y115.844 E33.30077
G1 X67.127 Y115.22 E33.33375
G1 X67.637 Y114.337 E33.38123
G1 X68.887 Y112.093 E33.50084
G1 X70.061 Y109.841 E33.61909
G1 X71.164 Y107.572 E33.73657
G1 X72.193 Y105.29 E33.85313
G1 X73.173 Y102.949 E33.9713
G1 X74.251 Y100.137 E34.11153
G1 X74.627 Y99.276 E34.15528
G1 X75.076 Y98.451 E34.19902
G1 X75.654 Y97.581 E34.24765
G1 X76.22 Y96.877 E34.28972
G1 X76.917 Y96.149 E34.33665
G1 X77.65 Y95.51 E34.38193
M204 S2000
G1 F2400 E33.58193
;MESH:Poop Bag Holder.stl
G0 F7500 X84.914 Y103.434
G0 X90.981 Y112.96
M204 S500
;TYPE:WALL-INNER
G1 F2400 E34.38193
G1 F1587.3 X90.6 Y113.169 E34.40105
G1 F1699.7 X86.5 Y113.174 E34.56953
G1 F1600 X85.957 Y112.856 E34.597
G1 F1500 X85.9 Y112.678 E34.6057
G1 X85.9 Y105.599 E34.93533
G1 X85.957 Y105.342 E34.94759
G1 F1587.3 X86.4 Y105.029 E34.97146
G1 F1699.7 X90.5 Y105.024 E35.13994
G1 F1600 X90.981 Y105.238 E35.16292
G1 F1500 X91.1 Y105.599 E35.18062
G1 X91.1 Y112.599 E35.50657
G1 X90.981 Y112.96 E35.52427
M204 S2000
G1 F2400 E34.72427
G0 F7500 X91.4 Y113.399
G0 X94.372 Y113.664
G0 X95.197 Y114.396
G0 X96.156 Y114.648
G0 X96.951 Y113.468
G0 X98.961 Y113.936
M204 S500
G1 F2400 E35.52427
G1 F1500 X97.02 Y113.301 E35.61936
G1 X96.884 Y113.223 E35.62666
G1 X95.361 Y111.853 E35.72205
G1 X94.498 Y109.917 E35.82075
G1 X94.498 Y107.913 E35.91406
G1 X94.549 Y107.668 E35.92572
G1 X95.361 Y105.845 E36.01864
G1 X96.884 Y104.475 E36.11403
G1 X97.02 Y104.397 E36.12133
G1 X98.964 Y103.762 E36.21656
G1 X101.072 Y103.986 E36.31527
G1 X102.923 Y105.054 E36.41478
G1 X104.156 Y106.749 E36.51238
G1 X104.481 Y106.749 E36.52751
G1 X132.511 Y107.239 E37.8329
G1 X132.749 Y107.292 E37.84426
G1 X132.927 Y107.416 E37.85436
G1 X133.052 Y107.601 E37.86476
G1 X133.1 Y107.839 E37.87606
G1 X133.1 Y109.938 E37.9738
G1 X133.052 Y110.098 E37.98158
G1 X132.927 Y110.284 E37.99201
G1 X132.749 Y110.408 E38.00211
G1 X132.587 Y110.46 E38.01004
G1 X104.507 Y110.949 E39.31776
G1 X104.158 Y110.949 E39.33401
G1 X102.929 Y112.641 E39.43139
